azure-patterns/svg-management-groups.svg

<svg xmlns="http://www.w3.org/2000/svg" viewBox="0 0 150 121">
                                
                            
<path d="M105 49.1194L104.136 51.192L77.3038 19.0487L74.9998 20.9656L72.6958 19.0487L45.8639 51.192L44.9999 49.1194L27.231 91.6945L32.7689 94.0007L44.9999 64.6938L57.2309 94.0007L62.7688 91.6945L48.4679 57.4307L74.9998 25.6439L101.532 57.4307L87.2308 91.6945L92.7687 94.0007L105 64.6938L117.231 94.0007L122.769 91.6945L105 49.1194Z" fill="#7FBA00"></path>
<path d="M120 101.833C124.971 101.833 129 97.8101 129 92.8477C129 87.8853 124.971 83.8624 120 83.8624C115.029 83.8624 111 87.8853 111 92.8477C111 97.8101 115.029 101.833 120 101.833Z" fill="#3999C6"></path>
<path d="M90 101.833C94.9705 101.833 98.9999 97.8101 98.9999 92.8477C98.9999 87.8853 94.9705 83.8624 90 83.8624C85.0294 83.8624 81 87.8853 81 92.8477C81 97.8101 85.0294 101.833 90 101.833Z" fill="#3999C6"></path>
<path d="M74.999 35.9411C83.2832 35.9411 89.9989 29.2364 89.9989 20.9657C89.9989 12.695 83.2832 5.99023 74.999 5.99023C66.7147 5.99023 59.999 12.695 59.999 20.9657C59.999 29.2364 66.7147 35.9411 74.999 35.9411Z" fill="#804998"></path>
<path d="M44.9995 68.8871C51.6269 68.8871 56.9994 63.5233 56.9994 56.9067C56.9994 50.2902 51.6269 44.9264 44.9995 44.9264C38.3721 44.9264 32.9995 50.2902 32.9995 56.9067C32.9995 63.5233 38.3721 68.8871 44.9995 68.8871Z" fill="#0072C6"></path>
<path d="M105 68.8871C111.627 68.8871 117 63.5233 117 56.9067C117 50.2902 111.627 44.9264 105 44.9264C98.3726 44.9264 93 50.2902 93 56.9067C93 63.5233 98.3726 68.8871 105 68.8871Z" fill="#0072C6"></path>
<path d="M59.9995 101.833C64.97 101.833 68.9995 97.8101 68.9995 92.8477C68.9995 87.8853 64.97 83.8624 59.9995 83.8624C55.0289 83.8624 50.9995 87.8853 50.9995 92.8477C50.9995 97.8101 55.0289 101.833 59.9995 101.833Z" fill="#3999C6"></path>
<path d="M30.0005 101.833C34.971 101.833 39.0004 97.8101 39.0004 92.8477C39.0004 87.8853 34.971 83.8624 30.0005 83.8624C25.0299 83.8624 21.0005 87.8853 21.0005 92.8477C21.0005 97.8101 25.0299 101.833 30.0005 101.833Z" fill="#3999C6"></path>
<path d="M28.4999 121C27.7671 120.941 27.0534 120.737 26.3999 120.401L5.99998 108.42C4.22755 107.358 2.74983 105.87 1.70174 104.091C0.653657 102.312 0.0686035 100.3 0 98.2372L0 22.761C0.0316309 20.6903 0.601177 18.6633 1.65291 16.8782C2.70463 15.0932 4.20252 13.6114 5.99998 12.5777L26.3999 0.597363C27.3933 0.027573 28.571 -0.130332 29.6798 0.157592C30.7886 0.445515 31.74 1.15628 32.3295 2.1371C32.9189 3.11791 33.0994 4.29047 32.8321 5.40272C32.5647 6.51497 31.871 7.4781 30.8999 8.08508L10.5 20.0654C9.66192 20.73 9.1224 21.6995 8.99997 22.761V98.2372C9.1224 99.2986 9.66192 100.268 10.5 100.933L30.8999 112.913C31.3929 113.208 31.8228 113.596 32.1651 114.057C32.5074 114.518 32.7553 115.041 32.8946 115.597C33.034 116.154 33.062 116.732 32.9771 117.3C32.8922 117.867 32.6961 118.412 32.3999 118.903C31.9482 119.522 31.3633 120.031 30.6884 120.394C30.0134 120.757 29.2656 120.964 28.4999 121Z" fill="#7A7A7A"></path>
<path d="M121.501 0C122.234 0.0591523 122.947 0.262749 123.601 0.599017L144.001 12.5794C145.773 13.6414 147.251 15.1298 148.299 16.9086C149.347 18.6874 149.932 20.7 150.001 22.7627V98.2388C149.969 100.31 149.399 102.337 148.348 104.122C147.296 105.907 145.798 107.388 144.001 108.422L123.601 120.402C122.607 120.972 121.43 121.13 120.321 120.842C119.212 120.554 118.261 119.844 117.671 118.863C117.082 117.882 116.901 116.709 117.169 115.597C117.436 114.485 118.13 113.522 119.101 112.915L139.501 100.934C140.339 100.27 140.878 99.3003 141.001 98.2388V22.7627C140.878 21.7012 140.339 20.7316 139.501 20.0671L119.101 8.08673C118.608 7.79223 118.178 7.40353 117.836 6.9429C117.493 6.48227 117.245 5.95875 117.106 5.40232C116.967 4.8459 116.939 4.26749 117.024 3.70024C117.108 3.13299 117.305 2.58802 117.601 2.09656C118.077 1.50357 118.667 1.01232 119.337 0.65211C120.007 0.291905 120.743 0.0701248 121.501 0Z" fill="#7A7A7A"></path>
</svg>

<svg xmlns="http://www.w3.org/2000/svg" viewBox="0 0 150 121"><path d="M105 49.12l-.864 2.072-26.832-32.143L75 20.966l-2.304-1.917-26.832 32.143L45 49.119 27.23 91.695 32.769 94l12.23-29.307L57.232 94l5.538-2.306L48.468 57.43 75 25.644l26.532 31.787-14.301 34.264L92.769 94 105 64.694 117.231 94l5.538-2.306L105 49.119z" fill="#7FBA00"/><path d="M120 101.833c4.971 0 9-4.023 9-8.985 0-4.963-4.029-8.986-9-8.986s-9 4.023-9 8.986c0 4.962 4.029 8.985 9 8.985zM90 101.833c4.97 0 9-4.023 9-8.985 0-4.963-4.03-8.986-9-8.986s-9 4.023-9 8.986c0 4.962 4.03 8.985 9 8.985z" fill="#3999C6"/><path d="M74.999 35.941c8.284 0 15-6.705 15-14.975 0-8.271-6.716-14.976-15-14.976-8.284 0-15 6.705-15 14.976 0 8.27 6.716 14.975 15 14.975z" fill="#804998"/><path d="M45 68.887c6.627 0 12-5.364 12-11.98 0-6.617-5.373-11.98-12-11.98-6.628 0-12 5.363-12 11.98 0 6.616 5.372 11.98 12 11.98zM105 68.887c6.627 0 12-5.364 12-11.98 0-6.617-5.373-11.98-12-11.98s-12 5.363-12 11.98c0 6.616 5.373 11.98 12 11.98z" fill="#0072C6"/><path d="M60 101.833c4.97 0 9-4.023 9-8.985 0-4.963-4.03-8.986-9-8.986-4.971 0-9 4.023-9 8.986 0 4.962 4.029 8.985 9 8.985zM30 101.833c4.971 0 9-4.023 9-8.985 0-4.963-4.029-8.986-9-8.986-4.97 0-9 4.023-9 8.986 0 4.962 4.03 8.985 9 8.985z" fill="#3999C6"/><path d="M28.5 121a5.571 5.571 0 0 1-2.1-.599L6 108.42a12.363 12.363 0 0 1-4.298-4.329A12.339 12.339 0 0 1 0 98.237V22.761c.032-2.07.601-4.098 1.653-5.883A11.973 11.973 0 0 1 6 12.578L26.4.598a4.38 4.38 0 0 1 5.93 1.54 4.361 4.361 0 0 1-1.43 5.947l-20.4 11.98A4.03 4.03 0 0 0 9 22.761v75.476a4.031 4.031 0 0 0 1.5 2.696l20.4 11.98a4.368 4.368 0 0 1 1.995 2.684 4.357 4.357 0 0 1-.495 3.306A5.12 5.12 0 0 1 28.5 121zM121.501 0a5.57 5.57 0 0 1 2.1.599l20.4 11.98a12.345 12.345 0 0 1 6 10.183V98.24a11.96 11.96 0 0 1-6 10.183l-20.4 11.98a4.38 4.38 0 0 1-5.93-1.539 4.36 4.36 0 0 1 1.43-5.948l20.4-11.981a4.03 4.03 0 0 0 1.5-2.695V22.763a4.032 4.032 0 0 0-1.5-2.696l-20.4-11.98a4.36 4.36 0 0 1-1.5-5.99 5.667 5.667 0 0 1 3.9-2.097z" fill="#7A7A7A"/></svg>
